icons/link updsidedown.svg

<svg width="24" height="24" viewBox="0 0 24 24" fill="none" xmlns="http://www.w3.org/2000/svg">
<g id="link updsidedown" clip-path="url(#clip0_392_60)">
<path id="Vector" d="M24 0H0V24H24V0Z" fill="#FEFEFE"/>
<g id="Clip path group">
<mask id="mask0_392_60" style="mask-type:luminance" maskUnits="userSpaceOnUse" x="0" y="0" width="24" height="24">
<g id="clip0_0_1">
<path id="Vector_2" d="M24 0H0V24H24V0Z" fill="white"/>
</g>
</mask>
<g mask="url(#mask0_392_60)">
<g id="Open--Streamline-Ionic-Filled.svg">
<path id="Vector_3" d="M9.9506 14.4739C9.7718 14.4739 9.59695 14.4207 9.44825 14.3213C9.2996 14.2219 9.18365 14.0806 9.1153 13.9154C9.04685 13.7502 9.0289 13.5683 9.06375 13.393C9.09865 13.2175 9.18475 13.0564 9.31115 12.9299L18.2407 4.00025C17.7786 3.74935 17.2609 3.61815 16.7351 3.61865H3.1661C2.32665 3.61955 1.5219 3.9534 0.9283 4.547C0.33475 5.1405 0.0009 5.9453 0 6.78475V20.3538C0.0009 21.1932 0.33475 21.998 0.9283 22.5915C1.5219 23.1852 2.32665 23.519 3.1661 23.5199H16.7351C17.5745 23.519 18.3793 23.1852 18.9728 22.5915C19.5664 21.998 19.9003 21.1932 19.9012 20.3538V6.78475C19.9017 6.2589 19.7705 5.7413 19.5196 5.27915L10.59 14.2087C10.5063 14.293 10.4066 14.3598 10.2969 14.4053C10.1872 14.4508 10.0694 14.474 9.9506 14.4739Z" fill="#1E1E1E"/>
<path id="Vector_2_2" d="M22.6142 0H16.2829C16.0431 0 15.813 0.0953 15.6434 0.2649C15.4738 0.43455 15.3784 0.6646 15.3784 0.9045C15.3784 1.14435 15.4738 1.3744 15.6434 1.54405C15.813 1.71365 16.0431 1.80895 16.2829 1.80895H20.4305L18.2406 3.99945C18.7813 4.2933 19.2254 4.73735 19.5193 5.27815L21.7097 3.0882V7.2358C21.7097 7.47565 21.8051 7.70575 21.9747 7.8754C22.1443 8.04495 22.3744 8.1403 22.6142 8.1403C22.8541 8.1403 23.0842 8.04495 23.2538 7.8754C23.4234 7.70575 23.5187 7.47565 23.5187 7.2358V0.9045C23.5187 0.6646 23.4234 0.43455 23.2538 0.2649C23.0842 0.0953 22.8541 0 22.6142 0Z" fill="#1E1E1E"/>
</g>
</g>
</g>
</g>
<defs>
<clipPath id="clip0_392_60">
<rect width="24" height="24" fill="white"/>
</clipPath>
</defs>
</svg>

<svg xmlns="http://www.w3.org/2000/svg" width="24" height="24" fill="none"><g clip-path="url(#a)"><path fill="#FEFEFE" d="M24 0H0v24h24z"/><mask id="b" width="24" height="24" x="0" y="0" maskUnits="userSpaceOnUse" style="mask-type:luminance"><path fill="#fff" d="M24 0H0v24h24z"/></mask><g fill="#1E1E1E" mask="url(#b)"><path d="M9.95 14.474a.904.904 0 0 1-.639-1.544L18.241 4a3.15 3.15 0 0 0-1.506-.381H3.166A3.17 3.17 0 0 0 0 6.785v13.569a3.17 3.17 0 0 0 3.166 3.166h13.57a3.17 3.17 0 0 0 3.165-3.166V6.784a3.15 3.15 0 0 0-.381-1.505l-8.93 8.93a.9.9 0 0 1-.64.265"/><path d="M22.614 0h-6.331a.905.905 0 0 0 0 1.809h4.147l-2.19 2.19c.541.294.985.738 1.28 1.28l2.19-2.19v4.147a.905.905 0 0 0 1.809 0V.905A.905.905 0 0 0 22.614 0"/></g></g><defs><clipPath id="a"><path fill="#fff" d="M0 0h24v24H0z"/></clipPath></defs></svg>
